Simply-Purple-Circles/scalable/apps/xorg.svg

<svg xmlns="http://www.w3.org/2000/svg" width="48" height="48" viewBox="0 0 12.7 12.7"><path d="M6.34.07a6.29 6.29 0 0 0-6.29 6.3 6.29 6.29 0 0 0 6.3 6.28 6.29 6.29 0 0 0 6.28-6.29A6.29 6.29 0 0 0 6.34.07zm-.01.94a5.4 5.4 0 0 1 5.4 5.4 5.4 5.4 0 0 1-5.4 5.41 5.4 5.4 0 0 1-5.41-5.4A5.4 5.4 0 0 1 6.32 1zM9.26 2.7L5.93 7.05l1.54 2.14c.18-.03.37-.02.53-.07.34-.1.63-.26.9-.43L7.15 6.24l2.7-3.54h-.6zm-6.49 0l2.77 3.87-1.45 1.9c.04.05.06.1.11.13.08.06.2.08.3.14l2.26-3-2.2-3.04H2.76zm6.6 6.66c-.36.21-.74.41-1.2.54-.05.02-.12.01-.17.02l.12.18H9.9l-.52-.74zM3.4 9.4l-.54.7h.6l.39-.5c-.15-.06-.31-.12-.45-.2z" fill="#963996"/><path d="M6.35 4.1c-.21 0-.44.03-.65.05l1.02 1.34c-.2-.42-.6-.83-.46-1.04.14-.2.4-.17.41-.17.41 0 .8.05 1.18.13l.08-.12a6.37 6.37 0 0 0-1.58-.18zm2.22.4l-.08.11c1.13.44 1.9 1.3 1.9 2.27 0 1.43-1.66 2.6-3.72 2.6-2.05 0-3.71-1.17-3.71-2.6 0-.78.5-1.48 1.27-1.96L4 4.55C2.77 5.07 1.95 6 1.95 7.02c0 1.62 1.97 2.93 4.4 2.93 2.43 0 4.4-1.31 4.4-2.93 0-1.07-.88-2.02-2.18-2.52z" opacity=".75" fill="#963996"/></svg>

<?xml version="1.0" encoding="UTF-8" standalone="no"?>
<svg
   xmlns:dc="http://purl.org/dc/elements/1.1/"
   xmlns:cc="http://creativecommons.org/ns#"
   xmlns:rdf="http://www.w3.org/1999/02/22-rdf-syntax-ns#"
   xmlns:svg="http://www.w3.org/2000/svg"
   xmlns="http://www.w3.org/2000/svg"
   xmlns:sodipodi="http://sodipodi.sourceforge.net/DTD/sodipodi-0.dtd"
   xmlns:inkscape="http://www.inkscape.org/namespaces/inkscape"
   width="48"
   height="48"
   viewBox="0 0 12.7 12.7"
   version="1.1"
   id="svg6"
   sodipodi:docname="xorg.svg"
   inkscape:version="0.92.4 (5da689c313, 2019-01-14)">
  <metadata
     id="metadata12">
    <rdf:RDF>
      <cc:Work
         rdf:about="">
        <dc:format>image/svg+xml</dc:format>
        <dc:type
           rdf:resource="http://purl.org/dc/dcmitype/StillImage" />
        <dc:title></dc:title>
      </cc:Work>
    </rdf:RDF>
  </metadata>
  <defs
     id="defs10" />
  <sodipodi:namedview
     pagecolor="#ffffff"
     bordercolor="#666666"
     borderopacity="1"
     objecttolerance="10"
     gridtolerance="10"
     guidetolerance="10"
     inkscape:pageopacity="0"
     inkscape:pageshadow="2"
     inkscape:window-width="1087"
     inkscape:window-height="480"
     id="namedview8"
     showgrid="false"
     inkscape:zoom="4.9166667"
     inkscape:cx="2.1355932"
     inkscape:cy="24"
     inkscape:window-x="0"
     inkscape:window-y="25"
     inkscape:window-maximized="0"
     inkscape:current-layer="svg6" />
  <path
     d="M 6.34,0.07 A 6.29,6.29 0 0 0 0.05,6.37 6.29,6.29 0 0 0 6.35,12.65 6.29,6.29 0 0 0 12.63,6.36 6.29,6.29 0 0 0 6.34,0.07 Z M 6.33,1.01 a 5.4,5.4 0 0 1 5.4,5.4 5.4,5.4 0 0 1 -5.4,5.41 A 5.4,5.4 0 0 1 0.92,6.42 5.4,5.4 0 0 1 6.32,1 Z M 9.26,2.7 5.93,7.05 7.47,9.19 C 7.65,9.16 7.84,9.17 8,9.12 8.34,9.02 8.63,8.86 8.9,8.69 L 7.15,6.24 9.85,2.7 h -0.6 z m -6.49,0 2.77,3.87 -1.45,1.9 C 4.13,8.52 4.15,8.57 4.2,8.6 4.28,8.66 4.4,8.68 4.5,8.74 l 2.26,-3 -2.2,-3.04 h -1.8 z m 6.6,6.66 C 9.01,9.57 8.63,9.77 8.17,9.9 8.12,9.92 8.05,9.91 8,9.92 L 8.12,10.1 H 9.9 L 9.38,9.36 Z M 3.4,9.4 2.86,10.1 h 0.6 L 3.85,9.6 C 3.7,9.54 3.54,9.48 3.4,9.4 Z"
     id="path2"
     inkscape:connector-curvature="0"
     style="fill:#963996" />
  <path
     d="M 6.35,4.1 C 6.14,4.1 5.91,4.13 5.7,4.15 L 6.72,5.49 C 6.52,5.07 6.12,4.66 6.26,4.45 6.4,4.25 6.66,4.28 6.67,4.28 c 0.41,0 0.8,0.05 1.18,0.13 L 7.93,4.29 A 6.37,6.37 0 0 0 6.35,4.11 Z M 8.57,4.5 8.49,4.61 c 1.13,0.44 1.9,1.3 1.9,2.27 0,1.43 -1.66,2.6 -3.72,2.6 C 4.62,9.48 2.96,8.31 2.96,6.88 2.96,6.1 3.46,5.4 4.23,4.92 L 4,4.55 C 2.77,5.07 1.95,6 1.95,7.02 c 0,1.62 1.97,2.93 4.4,2.93 2.43,0 4.4,-1.31 4.4,-2.93 C 10.75,5.95 9.87,5 8.57,4.5 Z"
     id="path4"
     inkscape:connector-curvature="0"
     style="opacity:0.75;fill:#963996" />
</svg>
